img/facebook.svg

<svg enable-background="new 0 0 12 22" height="22" viewBox="0 0 12 22" width="12" xmlns="http://www.w3.org/2000/svg"><path d="m12 4v-4h-4c-2.209 0-4 1.791-4 4v4h-4v4h4v10h4v-10h4v-4h-4v-4z" fill="#fff"/></svg>

<svg height="22" width="12" xmlns="http://www.w3.org/2000/svg"><path d="M12 4V0H8C6 0 4 2 4 4v4H0v4h4v10h4V12h4V8H8V4z" fill="#fff"/></svg>
